tenants/businesswise/icons/shopping_cart.svg

<svg fill="none" height="24" viewBox="0 0 24 24" width="24" xmlns="http://www.w3.org/2000/svg"><path d="m20.3375 13.5932 1.6414-7.31245c.1185-.52798-.2778-1.03075-.8126-1.03075h-13.63824l-.31827-1.57535c-.0793-.39266-.42055-.67465-.81642-.67465h-3.56004c-.46024 0-.83333.37775-.83333.84375v.5625c0 .466.37309.84375.83333.84375h2.4265l2.43916 12.0739c-.58354.3398-.97677.9769-.97677 1.7073 0 1.0874.87056 1.9688 1.94445 1.9688s1.94443-.8814 1.94443-1.9688c0-.551-.2238-1.0488-.5842-1.4062h7.2795c-.3603.3574-.5842.8552-.5842 1.4062 0 1.0874.8706 1.9688 1.9445 1.9688s1.9444-.8814 1.9444-1.9688c0-.7794-.4475-1.453-1.0965-1.772l.1916-.8535c.1185-.5279-.2779-1.0307-.8126-1.0307h-9.32009l-.22726-1.125h10.17865c.3891 0 .7264-.2726.8126-.6568z" fill="#000"/></svg>

<svg width="24" height="24" viewBox="0 0 24 24" fill="none" xmlns="http://www.w3.org/2000/svg">
<path d="M20.3375 13.5932L21.9789 6.28075C22.0974 5.75277 21.7011 5.25 21.1663 5.25H7.52806L7.20979 3.67465C7.13049 3.28199 6.78924 3 6.39337 3H2.83333C2.37309 3 2 3.37775 2 3.84375V4.40625C2 4.87225 2.37309 5.25 2.83333 5.25H5.25983L7.69899 17.3239C7.11545 17.6637 6.72222 18.3008 6.72222 19.0312C6.72222 20.1186 7.59278 21 8.66667 21C9.74056 21 10.6111 20.1186 10.6111 19.0312C10.6111 18.4802 10.3873 17.9824 10.0269 17.625H17.3064C16.9461 17.9824 16.7222 18.4802 16.7222 19.0312C16.7222 20.1186 17.5928 21 18.6667 21C19.7406 21 20.6111 20.1186 20.6111 19.0312C20.6111 18.2518 20.1636 17.5782 19.5146 17.2592L19.7062 16.4057C19.8247 15.8778 19.4283 15.375 18.8936 15.375H9.57351L9.34625 14.25H19.5249C19.914 14.25 20.2513 13.9774 20.3375 13.5932Z" fill="black"/>
</svg>
